X:21091 
T:HURRY THE JUG   
B:DMI.0971
Z:Nordberg/Black
N:In "Set Dance" section of DMI.
R:jig 
%Q:1/4=160
M:6/8
L:1/8
K:Em
D|EFE G2A|BGE FEF|DED F2G|AdB AFD|
EFE G2A|BGE FGA|BdB AdF|EGF E2:|
B|AFA d2d|^cec d2A|AFA d2A|BAG FED|
[1 E2e e2f|g2e f2d|B2e e2f|gfe fd:|
[2 EFE G2A|BGE FGA|BdB AdF|EGF HE3|]

%%%

